SVG_Azure_All/Open Supply Chain Platform.svg

<?xml version="1.0" encoding="UTF-8" standalone="no"?>
<!DOCTYPE svg PUBLIC "-//W3C//DTD SVG 1.1//EN" "http://www.w3.org/Graphics/SVG/1.1/DTD/svg11.dtd">
<!-- Generated by Microsoft Visio, SVG Export Open Supply Chain Platform.svg Page-1 -->
<svg xmlns="http://www.w3.org/2000/svg" xmlns:xlink="http://www.w3.org/1999/xlink" xmlns:ev="http://www.w3.org/2001/xml-events"
		width="1.73185in" height="1.73206in" viewBox="0 0 124.693 124.709" xml:space="preserve" color-interpolation-filters="sRGB"
		class="st5">
	<style type="text/css">
	<![CDATA[
		.st1 {fill:url(#grad0-6);stroke:none;stroke-linecap:butt;stroke-width:34}
		.st2 {fill:#ffffff;stroke:none;stroke-linecap:butt;stroke-width:34}
		.st3 {fill:#b796f9;fill-opacity:0.6;stroke:none;stroke-linecap:butt;stroke-width:34}
		.st4 {fill:url(#grad0-14);stroke:none;stroke-linecap:butt;stroke-width:34}
		.st5 {fill:none;fill-rule:evenodd;font-size:12px;overflow:visible;stroke-linecap:square;stroke-miterlimit:3}
	]]>
	</style>

	<defs id="Patterns_And_Gradients">
		<linearGradient id="grad0-6" x1="0" y1="0" x2="1" y2="0" gradientTransform="rotate(90 0.5 0.5)">
			<stop offset="0" stop-color="#a67af4" stop-opacity="1"/>
			<stop offset="1" stop-color="#773adc" stop-opacity="1"/>
		</linearGradient>
		<linearGradient id="grad0-14" x1="0" y1="0" x2="1" y2="0" gradientTransform="rotate(0 0.5 0.5)">
			<stop offset="0" stop-color="#c3f1ff" stop-opacity="1"/>
			<stop offset="1" stop-color="#9cebff" stop-opacity="1"/>
		</linearGradient>
	</defs>
	<g>
		<title>Page-1</title>
		<g id="group2360-1" transform="translate(34,-34.0157)">
			<title>Open Supply Chain Platform</title>
			<g id="group2361-2">
				<title>Sheet.2361</title>
				<g id="shape2362-3">
					<title>Sheet.2362</title>
					<ellipse cx="28.3465" cy="96.3622" rx="28.3465" ry="28.3465" class="st1"/>
				</g>
				<g id="shape2363-7" transform="translate(6.08189,-7.16573)">
					<title>Sheet.2363</title>
					<path d="M29.78 123.92 a0.444094 0.444094 0 0 1 -0.185827 0.702362 A22.3307 22.3307 0 0 1 3.73 115.98 a0.440945
								 0.440945 0 0 1 0.267717 -0.670866 A6.71496 6.71496 -180 0 0 6.29 114.22 a0.437795 0.437795 0 0 1
								 0.629921 0.110236 A18.7811 18.7811 -180 0 0 28.02 121.42 a0.431496 0.431496 0 0 1 0.551181 0.270866
								 A6.7748 6.7748 -180 0 0 29.78 123.92 ZM22.26 81.19 A22.3622 22.3622 -180 0 0 -0 101.79 a0.444094
								 0.444094 -180 0 0 0.56063 0.453543 A6.69921 6.69921 0 0 1 2.29 102.02 A6.57638 6.57638 0 0 1 3.08
								 102.06 a0.437795 0.437795 -180 0 0 0.47874 -0.4 A18.8189 18.8189 0 0 1 22.26 84.74 L22.82 84.74
								 A4.90394 4.90394 0 0 1 22.8 84.25 A6.74016 6.74016 0 0 1 23.26 81.8 a0.437795 0.437795 -180 0 0
								 -0.40315 -0.601575 L22.26 81.19 ZM35.89 86.6 A6.85984 6.85984 0 0 1 34.58 88.77 a0.434646 0.434646
								 -180 0 0 0.0503937 0.629921 A18.7717 18.7717 0 0 1 38.35 113.26 a0.428346 0.428346 -180 0 0 0.135433
								 0.598425 A6.85984 6.85984 0 0 1 40.37 115.57 a0.444094 0.444094 -180 0 0 0.724409 -0.0220472 A22.2992
								 22.2992 -180 0 0 36.59 86.41 a0.440945 0.440945 -180 0 0 -0.699213 0.182677 Z" class="st2"/>
				</g>
				<g id="shape2364-9" transform="translate(7.78268,-7.30079)">
					<title>Sheet.2364</title>
					<ellipse cx="20.5638" cy="104.145" rx="20.5638" ry="20.5638" class="st3"/>
				</g>
				<g id="shape2365-11" transform="translate(30.2205,-42.2143)">
					<title>Sheet.2365</title>
					<path d="M10.84 119.29 L10.84 119.66 A5.42362 5.42362 0 0 1 0.1 120.31 A5.19055 5.19055 0 0 1 0 119.29 A5.42677
								 5.42677 0 1 1 10.85 119.29 L10.84 119.29 Z" class="st4"/>
				</g>
				<g id="shape2366-15" transform="translate(35.7126,-11.3025)">
					<title>Sheet.2366</title>
					<path d="M10.77 123.73 A5.42992 5.42992 0 1 1 10.43 121.84 A5.35433 5.35433 0 0 1 10.77 123.73 Z" class="st4"/>
				</g>
				<g id="shape2367-18" transform="translate(2.87717,-17.7039)">
					<title>Sheet.2367</title>
					<path d="M10.92 119.29 A5.42362 5.42362 0 0 1 5.5 124.71 L5.35 124.71 A5.42413 5.42413 0 1 1 5.5 113.86 A5.52441
								 5.52441 0 0 1 7.12 114.1 A5.43307 5.43307 0 0 1 10.92 119.29 Z" class="st4"/>
				</g>
				<g id="shape2368-21" transform="translate(17.6787,-17.7039)">
					<title>Sheet.2368</title>
					<ellipse cx="10.6677" cy="114.041" rx="10.6677" ry="10.6677" class="st4"/>
				</g>
			</g>
		</g>
	</g>
</svg>

<?xml version="1.0" encoding="UTF-8" standalone="no"?>
<!-- Generated by Microsoft Visio, SVG Export Open Supply Chain Platform.svg Page-1 -->

<svg
   xmlns:dc="http://purl.org/dc/elements/1.1/"
   xmlns:cc="http://creativecommons.org/ns#"
   xmlns:rdf="http://www.w3.org/1999/02/22-rdf-syntax-ns#"
   xmlns:svg="http://www.w3.org/2000/svg"
   xmlns="http://www.w3.org/2000/svg"
   xmlns:xlink="http://www.w3.org/1999/xlink"
   xmlns:sodipodi="http://sodipodi.sourceforge.net/DTD/sodipodi-0.dtd"
   xmlns:inkscape="http://www.inkscape.org/namespaces/inkscape"
   width="0.78739846in"
   height="0.78739846in"
   viewBox="0 0 56.692597 56.693"
   xml:space="preserve"
   class="st5"
   version="1.1"
   id="svg60"
   sodipodi:docname="Open Supply Chain Platform.svg"
   style="font-size:12px;overflow:visible;color-interpolation-filters:sRGB;fill:none;fill-rule:evenodd;stroke-linecap:square;stroke-miterlimit:3"
   inkscape:version="0.92.5 (2060ec1f9f, 2020-04-08)"><metadata
   id="metadata64"><rdf:RDF><cc:Work
       rdf:about=""><dc:format>image/svg+xml</dc:format><dc:type
         rdf:resource="http://purl.org/dc/dcmitype/StillImage" /></cc:Work></rdf:RDF></metadata><sodipodi:namedview
   pagecolor="#ffffff"
   bordercolor="#666666"
   borderopacity="1"
   objecttolerance="10"
   gridtolerance="10"
   guidetolerance="10"
   inkscape:pageopacity="0"
   inkscape:pageshadow="2"
   inkscape:window-width="640"
   inkscape:window-height="480"
   id="namedview62"
   showgrid="false"
   inkscape:zoom="1.4193119"
   inkscape:cx="37.795128"
   inkscape:cy="37.784457"
   inkscape:window-x="0"
   inkscape:window-y="0"
   inkscape:window-maximized="0"
   inkscape:current-layer="svg60" />
	<style
   type="text/css"
   id="style2">
	<![CDATA[
		.st1 {fill:url(#grad0-6);stroke:none;stroke-linecap:butt;stroke-width:34}
		.st2 {fill:#ffffff;stroke:none;stroke-linecap:butt;stroke-width:34}
		.st3 {fill:#b796f9;fill-opacity:0.6;stroke:none;stroke-linecap:butt;stroke-width:34}
		.st4 {fill:url(#grad0-14);stroke:none;stroke-linecap:butt;stroke-width:34}
		.st5 {fill:none;fill-rule:evenodd;font-size:12px;overflow:visible;stroke-linecap:square;stroke-miterlimit:3}
	]]>
	</style>

	<defs
   id="Patterns_And_Gradients">
		<linearGradient
   id="grad0-6"
   x1="0"
   y1="68.015697"
   x2="56.693001"
   y2="68.015697"
   gradientUnits="userSpaceOnUse">
			<stop
   offset="0"
   stop-color="#a67af4"
   stop-opacity="1"
   id="stop4" />
			<stop
   offset="1"
   stop-color="#773adc"
   stop-opacity="1"
   id="stop6" />
		</linearGradient>
		<linearGradient
   id="grad0-14"
   x1="0"
   y1="0"
   x2="1"
   y2="0">
			<stop
   offset="0"
   stop-color="#c3f1ff"
   stop-opacity="1"
   id="stop9" />
			<stop
   offset="1"
   stop-color="#9cebff"
   stop-opacity="1"
   id="stop11" />
		</linearGradient>
	<linearGradient
   inkscape:collect="always"
   xlink:href="#grad0-14"
   id="linearGradient4574"
   x1="-0.0017816913"
   y1="112.97839"
   x2="10.923449"
   y2="112.97839"
   gradientTransform="scale(0.99343809,1.0066053)"
   gradientUnits="userSpaceOnUse" /><linearGradient
   inkscape:collect="always"
   xlink:href="#grad0-14"
   id="linearGradient4576"
   x1="-0.089839802"
   y1="118.30139"
   x2="10.770007"
   y2="118.30139"
   gradientUnits="userSpaceOnUse" /><linearGradient
   inkscape:collect="always"
   xlink:href="#grad0-14"
   id="linearGradient4578"
   x1="-0.00051682315"
   y1="114.22619"
   x2="10.884948"
   y2="114.22619"
   gradientTransform="scale(1.0032208,0.99678959)"
   gradientUnits="userSpaceOnUse" /><linearGradient
   inkscape:collect="always"
   xlink:href="#grad0-14"
   id="linearGradient4580"
   x1="0"
   y1="103.3733"
   x2="21.3354"
   y2="103.3733"
   gradientUnits="userSpaceOnUse" /></defs>
	<g
   id="g58"
   transform="translate(-34.000441,-33.999997)">
		<title
   id="title15">Page-1</title>
		<g
   id="group2375-1"
   transform="translate(34,-34.0157)">
			<title
   id="title17">Open Supply Chain Platform</title>
			<g
   id="group2376-2">
				<title
   id="title19">Sheet.2376</title>
				<g
   id="shape2377-3">
					<title
   id="title21">Sheet.2377</title>
					<circle
   cx="28.3465"
   cy="96.362198"
   class="st1"
   id="ellipse23"
   r="28.3465"
   style="fill:url(#grad0-6);stroke:none;stroke-width:34;stroke-linecap:butt" />
				</g>
				<g
   id="shape2378-7"
   transform="translate(6.08189,-7.16573)">
					<title
   id="title26">Sheet.2378</title>
					<path
   d="M 29.78,123.92 A 0.444094,0.444094 0 0 1 29.594173,124.62236 22.3307,22.3307 0 0 1 3.73,115.98 0.440945,0.440945 0 0 1 3.997717,115.30913 6.71496,6.71496 -180 0 0 6.29,114.22 0.437795,0.437795 0 0 1 6.919921,114.33024 18.7811,18.7811 -180 0 0 28.02,121.42 0.431496,0.431496 0 0 1 28.571181,121.69087 6.7748,6.7748 -180 0 0 29.78,123.92 Z M 22.26,81.19 A 22.3622,22.3622 -180 0 0 0,101.79 0.444094,0.444094 -180 0 0 0.56063,102.24354 6.69921,6.69921 0 0 1 2.29,102.02 6.57638,6.57638 0 0 1 3.08,102.06 0.437795,0.437795 -180 0 0 3.55874,101.66 18.8189,18.8189 0 0 1 22.26,84.74 h 0.56 A 4.90394,4.90394 0 0 1 22.8,84.25 6.74016,6.74016 0 0 1 23.26,81.8 0.437795,0.437795 -180 0 0 22.85685,81.198425 Z m 13.63,5.41 a 6.85984,6.85984 0 0 1 -1.31,2.17 0.434646,0.434646 -180 0 0 0.05039,0.629921 A 18.7717,18.7717 0 0 1 38.35,113.26 0.428346,0.428346 -180 0 0 38.485433,113.85843 6.85984,6.85984 0 0 1 40.37,115.57 0.444094,0.444094 -180 0 0 41.094409,115.54795 22.2992,22.2992 -180 0 0 36.59,86.41 0.440945,0.440945 -180 0 0 35.890787,86.592677 Z"
   class="st2"
   id="path28"
   inkscape:connector-curvature="0"
   style="fill:#ffffff;stroke:none;stroke-width:34;stroke-linecap:butt" />
				</g>
				<g
   id="shape2379-9"
   transform="translate(7.78268,-7.30079)">
					<title
   id="title31">Sheet.2379</title>
					<circle
   cx="20.563801"
   cy="104.145"
   class="st3"
   id="ellipse33"
   r="20.563801"
   style="fill:#b796f9;fill-opacity:0.6;stroke:none;stroke-width:34;stroke-linecap:butt" />
				</g>
				<g
   id="shape2380-11"
   transform="translate(30.2205,-42.2143)">
					<title
   id="title36">Sheet.2380</title>
					<path
   d="m 10.84,119.29 v 0.37 A 5.42362,5.42362 0 0 1 0.1,120.31 5.19055,5.19055 0 0 1 0,119.29 a 5.42677,5.42677 0 1 1 10.85,0 z"
   class="st4"
   id="path38"
   inkscape:connector-curvature="0"
   style="fill:url(#linearGradient4574);stroke:none;stroke-width:34;stroke-linecap:butt" />
				</g>
				<g
   id="shape2381-15"
   transform="translate(35.7126,-11.3025)">
					<title
   id="title41">Sheet.2381</title>
					<path
   d="m 10.77,123.73 a 5.42992,5.42992 0 1 1 -0.34,-1.89 5.35433,5.35433 0 0 1 0.34,1.89 z"
   class="st4"
   id="path43"
   inkscape:connector-curvature="0"
   style="fill:url(#linearGradient4576);stroke:none;stroke-width:34;stroke-linecap:butt" />
				</g>
				<g
   id="shape2382-18"
   transform="translate(2.87717,-17.7039)">
					<title
   id="title46">Sheet.2382</title>
					<path
   d="M 10.92,119.29 A 5.42362,5.42362 0 0 1 5.5,124.71 H 5.35 a 5.4255184,5.4255184 0 1 1 0.15,-10.85 5.52441,5.52441 0 0 1 1.62,0.24 5.43307,5.43307 0 0 1 3.8,5.19 z"
   class="st4"
   id="path48"
   inkscape:connector-curvature="0"
   style="fill:url(#linearGradient4578);stroke:none;stroke-width:34;stroke-linecap:butt" />
				</g>
				<g
   id="shape2383-21"
   transform="translate(17.6787,-17.7039)">
					<title
   id="title51">Sheet.2383</title>
					<circle
   cx="10.6677"
   cy="114.041"
   class="st4"
   id="ellipse53"
   r="10.6677"
   style="fill:url(#linearGradient4580);stroke:none;stroke-width:34;stroke-linecap:butt" />
				</g>
			</g>
		</g>
	</g>
</svg>
